public/library/sushi-text-light.svg

<svg width="177" height="61" viewBox="0 0 177 61" fill="none" xmlns="http://www.w3.org/2000/svg">
<g clip-path="url(#clip0_706_153)">
<path d="M74.6701 45.8345C72.4134 45.8345 70.1499 45.4174 67.8796 44.5831C65.6092 43.7488 63.6877 42.6479 62.1149 41.2802L65.8076 35.7821C67.0521 36.8626 68.4676 37.7379 70.0541 38.4081C71.6544 39.0646 73.1794 39.3928 74.629 39.3928C75.8326 39.3928 76.8447 39.174 77.6653 38.7363C78.4995 38.2986 78.9167 37.7174 78.9167 36.9926C78.9167 36.7327 78.862 36.5002 78.7526 36.295C78.6431 36.0898 78.4585 35.8984 78.1987 35.7206C77.9389 35.5428 77.6789 35.3923 77.4191 35.2692C77.1592 35.1325 76.7832 34.9889 76.2908 34.8384C75.8121 34.6881 75.3949 34.5717 75.0393 34.4897C74.6974 34.394 74.1982 34.264 73.5417 34.0999C66.7034 32.4313 63.2842 29.2788 63.2842 24.6424C63.2842 21.9755 64.3304 19.8419 66.423 18.2418C68.5155 16.6279 71.2783 15.821 74.7111 15.821C76.8584 15.821 78.8415 16.1492 80.6604 16.8057C82.4931 17.4622 83.9839 18.3238 85.1328 19.3906L81.8094 24.9091C80.934 24.1159 79.8467 23.48 78.5474 23.0012C77.2481 22.5089 75.942 22.2627 74.629 22.2627C73.4802 22.2627 72.5434 22.461 71.8185 22.8576C71.0936 23.2543 70.7312 23.7672 70.7312 24.3962C70.7312 25.0665 71.1552 25.6204 72.0031 26.058C72.8648 26.4956 74.0477 26.8923 75.5522 27.2479C76.0583 27.3573 76.5232 27.4736 76.9473 27.5966C77.3849 27.7061 77.9867 27.8975 78.7526 28.1711C79.5321 28.4309 80.2296 28.7181 80.8451 29.0327C81.4743 29.3473 82.1444 29.7576 82.8556 30.2636C83.5668 30.7697 84.1549 31.3167 84.6199 31.9048C85.0986 32.4929 85.4953 33.2041 85.8097 34.0384C86.138 34.8727 86.3021 35.7616 86.3021 36.7054C86.3021 38.4833 85.7892 40.0767 84.7635 41.4853C83.7378 42.8804 82.3428 43.954 80.5784 44.7062C78.8141 45.4584 76.8447 45.8345 74.6701 45.8345Z" fill="#101728"/>
<path d="M106.55 43.3522C104.677 45.0071 102.194 45.8345 99.1036 45.8345C96.0126 45.8345 93.5302 45.0071 91.6565 43.3522C89.7828 41.6837 88.846 39.4817 88.846 36.7464V23.9039H95.657V35.7821C95.657 36.8216 95.9716 37.6558 96.6007 38.285C97.2435 38.9141 98.0777 39.2287 99.1036 39.2287C100.129 39.2287 100.957 38.9141 101.586 38.285C102.229 37.6558 102.55 36.8216 102.55 35.7821V23.9039H109.361V36.7464C109.361 39.4817 108.424 41.6837 106.55 43.3522Z" fill="#101728"/>
<path d="M121.157 45.8345C117.724 45.8345 114.62 44.7678 111.843 42.6341L114.86 38.3466C116.842 39.8373 118.873 40.5827 120.952 40.5827C121.855 40.5827 122.58 40.4596 123.127 40.2134C123.674 39.9536 123.947 39.5979 123.947 39.1466C123.947 38.6816 123.66 38.326 123.085 38.0799C122.525 37.8337 121.649 37.5874 120.46 37.3412C119.831 37.2045 119.324 37.0951 118.942 37.013C118.572 36.9173 118.073 36.7668 117.444 36.5617C116.815 36.3565 116.302 36.1514 115.905 35.9462C115.523 35.7274 115.085 35.4402 114.592 35.0846C114.113 34.729 113.737 34.3461 113.465 33.9358C113.204 33.5118 112.979 33.0058 112.787 32.4177C112.595 31.8159 112.5 31.1594 112.5 30.4482C112.5 28.9165 112.917 27.6103 113.752 26.5298C114.586 25.4494 115.68 24.6561 117.034 24.1501C118.388 23.6441 119.92 23.391 121.629 23.391C124.789 23.391 127.687 24.3142 130.328 26.1605L127.291 30.4482C125.363 29.2447 123.558 28.6429 121.876 28.6429C121.109 28.6429 120.481 28.7455 119.988 28.9506C119.509 29.1558 119.27 29.4704 119.27 29.8943C119.27 30.3456 119.544 30.6944 120.09 30.9405C120.637 31.1731 121.513 31.4124 122.716 31.6586C123.305 31.768 123.804 31.8706 124.214 31.9663C124.625 32.0621 125.13 32.2057 125.732 32.3972C126.333 32.5886 126.84 32.7937 127.25 33.0126C127.674 33.2314 128.119 33.5186 128.583 33.8742C129.049 34.2161 129.425 34.5991 129.712 35.0231C129.999 35.447 130.231 35.96 130.41 36.5617C130.601 37.1498 130.697 37.7994 130.697 38.5107C130.697 40.822 129.801 42.6205 128.009 43.9061C126.231 45.1917 123.947 45.8345 121.157 45.8345Z" fill="#101728"/>
<path d="M146.678 23.391C149.099 23.391 151.048 24.1227 152.525 25.5861C154.016 27.0495 154.761 28.9916 154.761 31.4124V45.3217H147.95V33.6896C147.95 32.5681 147.629 31.6723 146.986 31.0021C146.342 30.3182 145.489 29.9763 144.422 29.9763C143.245 29.9763 142.295 30.3251 141.57 31.0226C140.859 31.7201 140.503 32.6365 140.503 33.7717V45.3217H133.712V15.0619H140.503V25.9143C142.144 24.2321 144.202 23.391 146.678 23.391Z" fill="#101728"/>
<path d="M162.29 21.5857C161.114 21.5857 160.129 21.196 159.335 20.4163C158.543 19.6231 158.146 18.6384 158.146 17.4622C158.146 16.2586 158.543 15.2671 159.335 14.4875C160.129 13.6942 161.114 13.2976 162.29 13.2976C163.494 13.2976 164.485 13.6942 165.265 14.4875C166.058 15.2671 166.455 16.2586 166.455 17.4622C166.455 18.6384 166.058 19.6231 165.265 20.4163C164.485 21.196 163.494 21.5857 162.29 21.5857ZM158.905 45.3217V23.9039H165.695V45.3217H158.905Z" fill="#101728"/>
<path fill-rule="evenodd" clip-rule="evenodd" d="M44.0888 27.3622C44.5705 28.4323 44.6962 29.377 44.2146 30.0277C43.7538 30.6776 42.8113 30.8672 41.6589 30.762C39.5841 30.5939 36.8604 29.4608 34.2204 27.572C31.5806 25.6825 29.6321 23.4579 28.8148 21.5477C28.354 20.4776 28.2282 19.5329 28.689 18.8822C29.1505 18.2316 30.093 18.0427 31.2662 18.127C33.319 18.316 36.0645 19.4283 38.6831 21.3177C41.3231 23.2066 43.2715 25.452 44.0888 27.3622Z" fill="#101728"/>
<path fill-rule="evenodd" clip-rule="evenodd" d="M53.6808 30.3681C53.5663 30.036 53.4346 29.6984 53.2864 29.3568C51.5687 25.3687 47.5247 20.6463 42.0141 16.6796C36.4832 12.7332 30.7424 10.4035 26.4055 10.0464C23.2626 9.79443 20.8326 10.571 19.5752 12.3339L10.9221 24.424C9.66529 26.1869 9.70681 28.7471 10.9636 31.6438C12.1131 34.2789 14.259 37.2343 17.179 40.075C18.7626 41.6098 20.4601 43.0227 22.2566 44.3002C27.7667 48.2668 33.5289 50.5758 37.8658 50.9537C40.9874 51.2056 43.4388 50.429 44.6961 48.6661L53.3285 36.576C54.437 35.0211 54.5354 32.8463 53.6814 30.3675L53.6808 30.3681ZM52.134 35.6948L52.071 35.7994C51.0449 37.122 49.096 37.5622 46.6232 37.374C42.4963 37.0383 37.0277 34.7917 31.7692 31.0139C26.5099 27.2362 22.6338 22.7657 20.9785 18.9458C19.9939 16.679 19.7839 14.685 20.727 13.2786L20.7697 13.1948C21.775 11.7891 23.7655 11.3268 26.2798 11.5365C30.4073 11.8722 35.8753 14.1182 41.1345 17.8959C46.4138 21.6736 50.2905 26.1448 51.9459 29.9438C52.9305 32.2528 53.1399 34.3092 52.134 35.6948Z" fill="#101728"/>
</g>
<defs>
<clipPath id="clip0_706_153">
<rect width="156.518" height="41" fill="white" transform="translate(10 10)"/>
</clipPath>
</defs>
</svg>

<svg xmlns="http://www.w3.org/2000/svg" width="177" height="61" fill="none" viewBox="0 0 177 61"><g fill="#101728" clip-path="url(#a)"><path d="M74.67 45.835q-3.385 0-6.79-1.252-3.405-1.251-5.765-3.303l3.693-5.498a15.8 15.8 0 0 0 4.246 2.626q2.4.985 4.575.985 1.806 0 3.036-.657 1.251-.656 1.252-1.743 0-.39-.164-.698-.165-.308-.554-.574a6 6 0 0 0-.78-.452q-.39-.204-1.128-.43-.718-.225-1.252-.35a60 60 0 0 0-1.497-.39q-10.258-2.502-10.258-9.457 0-4 3.139-6.4 3.139-2.421 8.288-2.421 3.22 0 5.95.985 2.748.984 4.472 2.585l-3.324 5.518q-1.312-1.19-3.262-1.908a11 11 0 0 0-3.918-.738q-1.724 0-2.81.595-1.088.595-1.088 1.538 0 1.005 1.272 1.662 1.293.657 3.55 1.19.758.165 1.394.349.657.164 1.806.574 1.17.39 2.092.862.945.472 2.01 1.23 1.068.76 1.765 1.642.718.883 1.19 2.133.492 1.252.492 2.667 0 2.668-1.539 4.78-1.538 2.093-4.185 3.221t-5.908 1.128M106.55 43.352q-2.81 2.483-7.446 2.483-4.637 0-7.448-2.483-2.81-2.502-2.81-6.606V23.904h6.811v11.878q0 1.56.944 2.503.963.945 2.503.944 1.538 0 2.482-.944.964-.944.964-2.503V23.904h6.811v12.842q0 4.104-2.811 6.606M121.157 45.835q-5.149 0-9.314-3.2l3.017-4.288q2.973 2.236 6.092 2.236 1.355 0 2.175-.37.82-.39.82-1.066 0-.698-.862-1.067-.84-.37-2.625-.739l-1.518-.328a27 27 0 0 1-1.498-.451 10.6 10.6 0 0 1-1.539-.616q-.573-.328-1.313-.861-.719-.534-1.127-1.15a7 7 0 0 1-.678-1.517 6.5 6.5 0 0 1-.287-1.97q0-2.298 1.252-3.918 1.251-1.62 3.282-2.38t4.595-.759q4.739 0 8.699 2.77l-3.037 4.287q-2.892-1.805-5.415-1.805-1.15 0-1.888.308-.718.308-.718.943 0 .677.82 1.047.821.348 2.626.718.883.164 1.498.307.616.144 1.518.431a9 9 0 0 1 1.518.616q.637.328 1.333.861a4.7 4.7 0 0 1 1.129 1.15q.43.635.698 1.538.287.882.287 1.949 0 3.467-2.688 5.395-2.667 1.928-6.852 1.928M146.678 23.391q3.632 0 5.847 2.195 2.236 2.195 2.236 5.826v13.91h-6.811V33.69q0-1.683-.964-2.688-.965-1.026-2.564-1.026-1.765 0-2.852 1.047-1.067 1.045-1.067 2.749v11.55h-6.791v-30.26h6.791v10.852q2.461-2.523 6.175-2.523M162.29 21.586q-1.764 0-2.955-1.17-1.189-1.19-1.189-2.954 0-1.805 1.189-2.974 1.191-1.19 2.955-1.19 1.805 0 2.975 1.19 1.19 1.169 1.19 2.974 0 1.764-1.19 2.954-1.17 1.17-2.975 1.17m-3.385 23.736V23.904h6.79v21.418z"/><path fill-rule="evenodd" d="M44.089 27.362c.482 1.07.607 2.015.126 2.666-.461.65-1.404.84-2.556.734-2.075-.168-4.799-1.301-7.439-3.19s-4.588-4.114-5.405-6.024c-.461-1.07-.587-2.015-.126-2.666.462-.65 1.404-.84 2.577-.755 2.053.189 4.799 1.301 7.417 3.19 2.64 1.89 4.589 4.135 5.406 6.045" clip-rule="evenodd"/><path fill-rule="evenodd" d="M53.68 30.368q-.17-.499-.394-1.011c-1.717-3.988-5.761-8.71-11.272-12.677-5.53-3.947-11.272-6.276-15.609-6.634-3.142-.252-5.572.525-6.83 2.288l-8.653 12.09c-1.257 1.763-1.215 4.323.042 7.22 1.15 2.635 3.295 5.59 6.215 8.431a43.6 43.6 0 0 0 5.078 4.225c5.51 3.967 11.272 6.276 15.609 6.654 3.121.252 5.573-.525 6.83-2.288l8.633-12.09c1.108-1.555 1.206-3.73.352-6.209zm-1.546 5.327-.063.104c-1.026 1.323-2.975 1.763-5.448 1.575-4.127-.336-9.595-2.582-14.854-6.36-5.26-3.778-9.135-8.248-10.79-12.068-.985-2.267-1.195-4.261-.252-5.667l.043-.084c1.005-1.406 2.996-1.868 5.51-1.658 4.127.335 9.595 2.581 14.855 6.359 5.279 3.778 9.156 8.249 10.81 12.048.986 2.309 1.195 4.365.189 5.75" clip-rule="evenodd"/></g><defs><clipPath id="a"><path fill="#fff" d="M10 10h156.518v41H10z"/></clipPath></defs></svg>
